images/publish.svg

<svg xmlns="http://www.w3.org/2000/svg" viewBox="0 0 16 16">
  <defs/>
  <path fill="#000" fill-rule="nonzero" d="M14.5125356 3.3801841c-.0002678-.00515481-.0008369-.01030962-.0017071-.01543096-.0199833-.0285523-.0445523-.05312134-.0651381-.0811046-.1492887-.20338076-.3073473-.39912971-.4741423-.58728034-.0456904-.05141423-.0914142-.10225941-.1382427-.15253556-.1717489-.18393306-.3518995-.35933055-.5404184-.52612553-.0348452-.03086192-.0674142-.06282845-.1022594-.09312134-.4646025-.3980251-.9733222-.74152301-1.5161506-1.02369874-.0217239-.01141423-.0445523-.02112134-.0668452-.03256904-.2417406-.12284519-.4896067-.23327197-.7426611-.33077824-.0571381-.0205523-.1091213-.04-.1633807-.05713808-.2250712-.0811046-.45359-.15213389-.6855231-.21308786-.06855226-.01827615-.13710456-.03712134-.20679493-.05312134-.22851883-.05312134-.45700419-.09369038-.69067783-.12682845-.07082845-.01027615-.14051883-.024-.21194979-.03256904-.60180753-.07313808-1.21024268-.07313808-1.81208368 0-.07139749.00856904-.14108787.02229289-.21194979.03256904-.23364017.03313807-.46443515.07370711-.69067783.12682845-.06969037.016-.13824267.03484519-.20679497.05312134-.23347281.0609205-.46195816.13194979-.68552302.21308786-.05713807.01941423-.10912134.03886193-.16338075.05713808-.25302092.09750627-.5009205.20789958-.74266109.33077824-.02229289.01141423-.04512134.02112134-.06684519.03256904-.54463598.28187448-1.05506276.62533891-1.52130544 1.02369874-.03484518.03025942-.06741422.06225942-.10225941.09312134-.19042678.16756486-.37057741.34296235-.54041841.52612553-.04682845.05027615-.0925523.10112133-.13824268.15253556-.16719665.18774895-.32525523.38349791-.47414226.58724686-.0205523.02798327-.04512134.0525523-.06513807.08110461-.00261088.00498744-.0049205.01014225-.00686193.01543096-1.97041004 2.76140586-1.97041004 6.46918828 0 9.23056067.00194143.0052887.00421758.0104435.00686193.015431.01998326.0285523.0445523.0531213.06513807.0811046.1489205.2033807.30694561.3991297.47414226.5872803.04569038.0514142.09141423.1022594.13824268.1525356.17215063.183933.35226778.3593305.54041841.5261255.03484519.0308619.06741423.0628284.10225941.0931213.46460251.3980251.97332218.741523 1.51615063 1.0236988.02172385.0114142.0445523.0211213.06684519.032569.24174059.1228452.48960669.233272.74266109.3307782.05713807.0205523.10912134.04.16338075.0571381.22507113.0811046.45358996.1521339.68552301.2130879.0685523.0182761.13710461.0371213.20679498.0531213.22851883.0531214.45700419.0936904.69067783.1268285.07082845.0102761.14051883.024.21194979.032569.60180753.0731381 1.21024268.0731381 1.81208368 0 .07139749-.008569.14108787-.0222929.21194979-.032569.23364017-.0331381.46443515-.0737071.69067782-.1268285.06969038-.016.13824268-.0348452.20679495-.0531213.233841-.0609205.4623599-.1319498.685523-.2130879.0571381-.0194142.1091214-.0388619.1633808-.0571381.2530209-.0975062.5009205-.2078995.7426611-.3307782.0222929-.0114142.0451213-.0211213.0668452-.032569.5428284-.2822092 1.0515481-.6256737 1.5161506-1.0236988.0348452-.0302929.0674142-.0622594.1022594-.0931213.1904268-.1671967.3705774-.3425607.5404184-.5261255.0468285-.0502762.0925523-.1011214.1382427-.1525356.1671967-.1881506.3252552-.3838996.4741423-.5872803.0205523-.0279833.0451213-.0525523.065138-.0811046.0026109-.0049875.0049205-.0101423.006862-.015431 1.97041-2.76133892 1.97041-6.46912134 0-9.2305272zm-.6518159 1.08087029c.5463431.89978243.876251 1.91414226.9637154 2.96317992h-3.4218912c-.0419079-.68070293-.1490209-1.35578243-.3198995-2.016.9665941-.18102092 1.9021924-.50001674 2.7780753-.94717992zM9.45164854 1.29790795c.032.00743096.06282845.01770711.09482845.02513808.20451883.048.40733054.10282845.60555651.17138075.0302929.01027615.0599832.02229289.0897071.03313807.1965188.0685523.390159.14453557.5798494.22851883.033138.01543096.0657071.03256904.0988451.048.181657.08646025.3591298.17994979.5324185.28050209l.1142426.06912134c.1645189.1005523.3244854.20813389.4798661.32277825.04.02912133.0799666.05713807.1193975.0891046.1523348.11424268.2982092.23668619.43759.36733054.0365523.03313808.0742761.06570712.1102594.09998327.1462427.13881171.2856234.28562343.4204519.43758995.0171381.01998327.0354142.03825942.0525523.05713808-.773523.36863598-1.5929707.63186611-2.4364519.78262761-.3907615-1.0742092-.9069456-2.09854393-1.537841-3.05171548.07933055.01425942.16046862.02225942.23872804.03936402zM5.73382427 7.42420084c.04505439-.61810879.15029288-1.23035984.3142092-1.82805021.6472636.07688703 1.29851046.11501255 1.95032636.11424268.65241841-.00020084 1.30426779-.03929708 1.95203348-.11712134.16361509.59866108.26828449 1.21188284.31246859 1.83092887H5.73382427zm4.52903763 1.14256067c-.0450544.61810878-.1502929 1.23035983-.31420918 1.82805019-.6472636-.076887-1.29851046-.1150125-1.95032636-.1142427-.65238494-.0007364-1.30420084.0373892-1.95203347.1142427-.1634477-.59772383-.26808368-1.20997488-.3125021-1.82805019h4.52907111zM7.99832636 1.5127364c.65010879.92140586 1.18480335 1.91906276 1.59213389 2.97061088-.52883682.05616736-1.06028452.08438494-1.59213389.0845523-.53124686-.00063598-1.06212552-.02902092-1.59042678-.08512134.40783264-1.05084519.94189121-2.04816736 1.59042678-2.97004184zM2.86262762 3.46989121c.13425941-.15196652.2742092-.29877824.42045188-.43758995.03598326-.03427616.07370711-.06684519.11025941-.09998327.1409205-.12833473.28679498-.25077824.43758996-.36733054.03943096-.03029289.07939749-.05713808.11939749-.0891046.15538075-.11424268.31534728-.22185775.47986611-.32277825l.11424268-.06912134c.1732887-.1012887.3507615-.19481171.53241841-.28050209.03313807-.01543096.06570711-.03256904.09884518-.048.18965691-.08569038.38333055-.16167364.57984938-.22851883.02969037-.01084519.05713807-.02286192.08967364-.03313807.19822594-.06627615.39989958-.1211046.60555648-.17138076.032-.00743096.06282845-.01770711.09539749-.02456903.07825942-.01713808.15939749-.02513808.23879498-.03943097-.63116318.95333892-1.14751464 1.97787448-1.53844351 3.05228452-.84348117-.1507615-1.66296235-.41399163-2.43645189-.78262761.01713808-.01994979.03541423-.03822594.05255231-.05820921zm-.72666109.99116318c.87568201.44712971 1.8110795.76612553 2.77750627.94717992-.17067782.66025105-.27762343 1.33533054-.31933054 2.016H1.17225105c.0874979-1.04903766.41740585-2.06339749.96371548-2.96317992zm0 7.06888701c-.5463431-.8997824-.87625105-1.91414224-.96371548-2.96317989h3.42189121c.04190795.68070293.14902092 1.35578242.31989958 2.01599999-.96659414.1809875-1.90219247.4999833-2.77807531.9471799zm4.40907113 3.163113c-.032-.007431-.06282845-.0177071-.09482845-.0251381-.20451883-.048-.40733055-.1028284-.60555649-.1713807-.03029289-.0102762-.05998326-.0222929-.08970711-.0331381-.19651883-.0685523-.390159-.1445356-.57984938-.2285188-.03313807-.015431-.06570711-.0325691-.09884518-.048-.18165691-.0864603-.35912971-.1799498-.53241841-.2805021l-.11424268-.0691214c-.16451883-.1005523-.32448536-.2081339-.47986611-.3227782-.04-.0291214-.07996653-.0571381-.11939749-.0891046-.15233473-.1142427-.29820921-.2366862-.43758996-.3673306-.0365523-.033138-.07427615-.0657071-.11025941-.0999832-.14624268-.1388117-.28562343-.2856235-.42045189-.43759-.01713807-.0199832-.03541422-.0382594-.0525523-.0571381.77352302-.3686359 1.59297071-.6318661 2.43645189-.7826276.3907615 1.0742092.9069456 2.098544 1.537841 3.0517155-.07936402-.0142259-.16046862-.0222259-.23872803-.039364zm1.4532887-.214795c-.65010879-.9214058-1.18480335-1.9190627-1.59213389-2.9706109 1.05797489-.1138744 2.12512134-.1138744 3.18309623 0l-.00056903.0005691c-.4077657 1.0508117-.94182427 2.0481339-1.59039331 2.9700418zm5.13573224-1.9571883c-.1342594.1519666-.2742092.2987783-.4204519.43759-.0359833.0342761-.0737071.0668452-.1102594.0999833-.1409205.1287364-.286795.2511799-.43759.3673305-.0394309.0302594-.0793975.0599833-.1193975.0891046-.1553807.1142427-.3153472.2218577-.4798661.3227782l-.1142427.0691214c-.1729205.1009205-.3503933.19441-.5324184.2805021-.033138.0154309-.0657071.032569-.0988452.048-.1896569.0856903-.3833305.1616736-.5798493.2285188-.0296904.0108452-.0571381.0228619-.0896737.0331381-.19822591.0662761-.39989955.1211046-.60555645.1713807-.032.007431-.06282845.0177071-.09539749.0245691-.07825941.017138-.15939749.025138-.23879498.0394309.6308954-.9531715 1.14711302-1.9775062 1.53784102-3.0517155.8434812.1507616 1.6629623.4139917 2.4364519.7826277-.0165356.0193807-.0348117.0376569-.0519498.0576401zm.7266611-.9911297c-.875682-.4471297-1.8110795-.7661255-2.7775063-.9471799.1706778-.66025104.2776234-1.33533054.3193305-2.01599999h3.4218912c-.0874979 1.04900418-.4174058 2.06336399-.9637154 2.96317989z"/>
</svg>

<?xml version="1.0" encoding="UTF-8"?>
<svg width="16px" height="16px" viewBox="0 0 16 16" version="1.1" xmlns="http://www.w3.org/2000/svg" xmlns:xlink="http://www.w3.org/1999/xlink">
    <title>Publish</title>
    <g id="Publish" stroke="none" stroke-width="1" fill="none" fill-rule="evenodd">
        <g id="global" transform="translate(0.000000, 0.000000)" fill="#000000" fill-rule="nonzero">
            <path d="M14.5125356,3.3801841 C14.5122678,3.37502929 14.5116987,3.36987448 14.5108285,3.36475314 C14.4908452,3.33620084 14.4662762,3.3116318 14.4456904,3.28364854 C14.2964017,3.08026778 14.1383431,2.88451883 13.9715481,2.6963682 C13.9258577,2.64495397 13.8801339,2.59410879 13.8333054,2.54383264 C13.6615565,2.35989958 13.4814059,2.18450209 13.292887,2.01770711 C13.2580418,1.98684519 13.2254728,1.95487866 13.1906276,1.92458577 C12.7260251,1.52656067 12.2173054,1.18306276 11.674477,0.900887029 C11.6527531,0.889472803 11.6299247,0.87976569 11.6076318,0.868317992 C11.3658912,0.745472803 11.1180251,0.635046025 10.8649707,0.537539749 C10.8078326,0.516987448 10.7558494,0.497539749 10.70159,0.480401674 C10.4765188,0.399297071 10.248,0.328267782 10.0160669,0.267313808 C9.94751464,0.249037657 9.87896234,0.230192469 9.80927197,0.214192469 C9.58075314,0.16107113 9.35226778,0.120502092 9.11859414,0.0873640167 C9.04776569,0.0770878661 8.97807531,0.0633640167 8.90664435,0.0547949791 C8.30483682,-0.0183430962 7.69640167,-0.0183430962 7.09456067,0.0547949791 C7.02316318,0.0633640167 6.9534728,0.0770878661 6.88261088,0.0873640167 C6.64897071,0.120502092 6.41817573,0.16107113 6.19193305,0.214192469 C6.12224268,0.230192469 6.05369038,0.249037657 5.98513808,0.267313808 C5.75166527,0.32823431 5.52317992,0.399263598 5.29961506,0.480401674 C5.24247699,0.4998159 5.19049372,0.519263598 5.13623431,0.537539749 C4.88321339,0.635046025 4.63531381,0.745439331 4.39357322,0.868317992 C4.37128033,0.879732218 4.34845188,0.889439331 4.32672803,0.900887029 C3.78209205,1.18276151 3.27166527,1.52622594 2.80542259,1.92458577 C2.77057741,1.95484519 2.73800837,1.98684519 2.70316318,2.01770711 C2.5127364,2.18527197 2.33258577,2.36066946 2.16274477,2.54383264 C2.11591632,2.59410879 2.07019247,2.64495397 2.02450209,2.6963682 C1.85730544,2.88411715 1.69924686,3.07986611 1.55035983,3.28361506 C1.52980753,3.31159833 1.50523849,3.33616736 1.48522176,3.36471967 C1.48261088,3.36970711 1.48030126,3.37486192 1.47835983,3.38015063 C-0.492050209,6.14155649 -0.492050209,9.84933891 1.47835983,12.6107113 C1.48030126,12.616 1.48257741,12.6211548 1.48522176,12.6261423 C1.50520502,12.6546946 1.52977406,12.6792636 1.55035983,12.7072469 C1.69928033,12.9106276 1.85730544,13.1063766 2.02450209,13.2945272 C2.07019247,13.3459414 2.11591632,13.3967866 2.16274477,13.4470628 C2.3348954,13.6309958 2.51501255,13.8063933 2.70316318,13.9731883 C2.73800837,14.0040502 2.77057741,14.0360167 2.80542259,14.0663096 C3.2700251,14.4643347 3.77874477,14.8078326 4.32157322,15.0900084 C4.34329707,15.1014226 4.36612552,15.1111297 4.38841841,15.1225774 C4.630159,15.2454226 4.8780251,15.3558494 5.1310795,15.4533556 C5.18821757,15.4739079 5.24020084,15.4933556 5.29446025,15.5104937 C5.51953138,15.5915983 5.74805021,15.6626276 5.97998326,15.7235816 C6.04853556,15.7418577 6.11708787,15.7607029 6.18677824,15.7767029 C6.41529707,15.8298243 6.64378243,15.8703933 6.87745607,15.9035314 C6.94828452,15.9138075 7.0179749,15.9275314 7.08940586,15.9361004 C7.69121339,16.0092385 8.29964854,16.0092385 8.90148954,15.9361004 C8.97288703,15.9275314 9.04257741,15.9138075 9.11343933,15.9035314 C9.3470795,15.8703933 9.57787448,15.8298243 9.80411715,15.7767029 C9.87380753,15.7607029 9.94235983,15.7418577 10.0109121,15.7235816 C10.2447531,15.6626611 10.473272,15.5916318 10.6964351,15.5104937 C10.7535732,15.4910795 10.8055565,15.4716318 10.8598159,15.4533556 C11.1128368,15.3558494 11.3607364,15.2454561 11.602477,15.1225774 C11.6247699,15.1111632 11.6475983,15.1014561 11.6693222,15.0900084 C12.2121506,14.8077992 12.7208703,14.4643347 13.1854728,14.0663096 C13.220318,14.0360167 13.252887,14.0040502 13.2877322,13.9731883 C13.478159,13.8059916 13.6583096,13.6306276 13.8281506,13.4470628 C13.8749791,13.3967866 13.9207029,13.3459414 13.9663933,13.2945272 C14.13359,13.1063766 14.2916485,12.9106276 14.4405356,12.7072469 C14.4610879,12.6792636 14.4856569,12.6546946 14.5056736,12.6261423 C14.5082845,12.6211548 14.5105941,12.616 14.5125356,12.6107113 C16.4829456,9.84937238 16.4829456,6.14158996 14.5125356,3.3801841 Z M13.8607197,4.46105439 C14.4070628,5.36083682 14.7369707,6.37519665 14.8244351,7.42423431 L11.4025439,7.42423431 C11.360636,6.74353138 11.253523,6.06845188 11.0826444,5.40823431 C12.0492385,5.22721339 12.9848368,4.90821757 13.8607197,4.46105439 Z M9.45164854,1.29790795 C9.48364854,1.30533891 9.51447699,1.31561506 9.54647699,1.32304603 C9.75099582,1.37104603 9.95380753,1.42587448 10.1520335,1.49442678 C10.1823264,1.50470293 10.2120167,1.51671967 10.2417406,1.52756485 C10.4382594,1.59611715 10.6318996,1.67210042 10.82159,1.75608368 C10.854728,1.77151464 10.8872971,1.78865272 10.9204351,1.80408368 C11.1020921,1.89054393 11.2795649,1.98403347 11.4528536,2.08458577 L11.5670962,2.15370711 C11.7316151,2.25425941 11.8915816,2.361841 12.0469623,2.47648536 C12.0869623,2.50560669 12.1269289,2.53362343 12.1663598,2.56558996 C12.3186946,2.67983264 12.464569,2.80227615 12.6039498,2.9329205 C12.6405021,2.96605858 12.6782259,2.99862762 12.7142092,3.03290377 C12.8604519,3.17171548 12.9998326,3.3185272 13.1346611,3.47049372 C13.1517992,3.49047699 13.1700753,3.50875314 13.1872134,3.5276318 C12.4136904,3.89626778 11.5942427,4.15949791 10.7507615,4.31025941 C10.36,3.23605021 9.8438159,2.21171548 9.2129205,1.25854393 C9.29225105,1.27280335 9.37338912,1.28080335 9.45164854,1.29790795 Z M5.73382427,7.42420084 C5.77887866,6.80609205 5.88411715,6.193841 6.04803347,5.59615063 C6.69529707,5.67303766 7.34654393,5.71116318 7.99835983,5.71039331 C8.65077824,5.71019247 9.30262762,5.67109623 9.95039331,5.59327197 C10.1140084,6.19193305 10.2186778,6.80515481 10.2628619,7.42420084 L5.73382427,7.42420084 Z M10.2628619,8.56676151 C10.2178075,9.18487029 10.112569,9.79712134 9.94865272,10.3948117 C9.30138912,10.3179247 8.65014226,10.2797992 7.99832636,10.280569 C7.34594142,10.2798326 6.69412552,10.3179582 6.04629289,10.3948117 C5.88284519,9.79708787 5.77820921,9.18483682 5.73379079,8.56676151 L10.2628619,8.56676151 L10.2628619,8.56676151 Z M7.99832636,1.5127364 C8.64843515,2.43414226 9.18312971,3.43179916 9.59046025,4.48334728 C9.06162343,4.53951464 8.53017573,4.56773222 7.99832636,4.56789958 C7.4670795,4.5672636 6.93620084,4.53887866 6.40789958,4.48277824 C6.81573222,3.43193305 7.34979079,2.43461088 7.99832636,1.5127364 Z M2.86262762,3.46989121 C2.99688703,3.31792469 3.13683682,3.17111297 3.2830795,3.03230126 C3.31906276,2.9980251 3.35678661,2.96545607 3.39333891,2.93231799 C3.53425941,2.80398326 3.68013389,2.68153975 3.83092887,2.56498745 C3.87035983,2.53469456 3.91032636,2.50784937 3.95032636,2.47588285 C4.10570711,2.36164017 4.26567364,2.2540251 4.43019247,2.1531046 L4.54443515,2.08398326 C4.71772385,1.98269456 4.89519665,1.88917155 5.07685356,1.80348117 C5.10999163,1.78805021 5.14256067,1.77091213 5.17569874,1.75548117 C5.36535565,1.66979079 5.55902929,1.59380753 5.75554812,1.52696234 C5.78523849,1.51611715 5.81268619,1.50410042 5.84522176,1.49382427 C6.0434477,1.42754812 6.24512134,1.37271967 6.45077824,1.32244351 C6.48277824,1.31501255 6.51360669,1.3047364 6.54617573,1.29787448 C6.62443515,1.2807364 6.70557322,1.2727364 6.78497071,1.25844351 C6.15380753,2.21178243 5.63745607,3.23631799 5.2465272,4.31072803 C4.40304603,4.15996653 3.58356485,3.8967364 2.81007531,3.52810042 C2.82721339,3.50815063 2.84548954,3.48987448 2.86262762,3.46989121 Z M2.13596653,4.46105439 C3.01164854,4.9081841 3.94704603,5.22717992 4.9134728,5.40823431 C4.74279498,6.06848536 4.63584937,6.74356485 4.59414226,7.42423431 L1.17225105,7.42423431 C1.25974895,6.37519665 1.5896569,5.36083682 2.13596653,4.46105439 Z M2.13596653,11.5299414 C1.58962343,10.630159 1.25971548,9.61579916 1.17225105,8.56676151 L4.59414226,8.56676151 C4.63605021,9.24746444 4.74316318,9.92254393 4.91404184,10.5827615 C3.9474477,10.763749 3.01184937,11.0827448 2.13596653,11.5299414 Z M6.54503766,14.6930544 C6.51303766,14.6856234 6.48220921,14.6753473 6.45020921,14.6679163 C6.24569038,14.6199163 6.04287866,14.5650879 5.84465272,14.4965356 C5.81435983,14.4862594 5.78466946,14.4742427 5.75494561,14.4633975 C5.55842678,14.3948452 5.36478661,14.3188619 5.17509623,14.2348787 C5.14195816,14.2194477 5.10938912,14.2023096 5.07625105,14.1868787 C4.89459414,14.1004184 4.71712134,14.0069289 4.54383264,13.9063766 L4.42958996,13.8372552 C4.26507113,13.7367029 4.1051046,13.6291213 3.94972385,13.514477 C3.90972385,13.4853556 3.86975732,13.4573389 3.83032636,13.4253724 C3.67799163,13.3111297 3.53211715,13.1886862 3.3927364,13.0580418 C3.3561841,13.0249038 3.31846025,12.9923347 3.28247699,12.9580586 C3.13623431,12.8192469 2.99685356,12.6724351 2.8620251,12.5204686 C2.84488703,12.5004854 2.82661088,12.4822092 2.8094728,12.4633305 C3.58299582,12.0946946 4.40244351,11.8314644 5.24592469,11.6807029 C5.63668619,12.7549121 6.15287029,13.7792469 6.78376569,14.7324184 C6.70440167,14.7181925 6.62329707,14.7101925 6.54503766,14.6930544 Z M7.99832636,14.4782594 C7.34821757,13.5568536 6.81352301,12.5591967 6.40619247,11.5076485 C7.46416736,11.3937741 8.53131381,11.3937741 9.5892887,11.5076485 L9.58871967,11.5082176 C9.18095397,12.5590293 8.6468954,13.5563515 7.99832636,14.4782594 Z M13.1340586,12.5210711 C12.9997992,12.6730377 12.8598494,12.8198494 12.7136067,12.9586611 C12.6776234,12.9929372 12.6398996,13.0255063 12.6033473,13.0586444 C12.4624268,13.1873808 12.3165523,13.3098243 12.1657573,13.4259749 C12.1263264,13.4562343 12.0863598,13.4859582 12.0463598,13.5150795 C11.8909791,13.6293222 11.7310126,13.7369372 11.5664937,13.8378577 L11.452251,13.9069791 C11.2793305,14.0078996 11.1018577,14.1013891 10.9198326,14.1874812 C10.8866946,14.2029121 10.8541255,14.2200502 10.8209874,14.2354812 C10.6313305,14.3211715 10.4376569,14.3971548 10.2411381,14.464 C10.2114477,14.4748452 10.184,14.4868619 10.1514644,14.4971381 C9.95323849,14.5634142 9.75156485,14.6182427 9.54590795,14.6685188 C9.51390795,14.6759498 9.4830795,14.6862259 9.45051046,14.6930879 C9.37225105,14.7102259 9.29111297,14.7182259 9.21171548,14.7325188 C9.84261088,13.7793473 10.3588285,12.7550126 10.7495565,11.6808033 C11.5930377,11.8315649 12.4125188,12.094795 13.1860084,12.463431 C13.1694728,12.4828117 13.1511967,12.5010879 13.1340586,12.5210711 Z M13.8607197,11.5299414 C12.9850377,11.0828117 12.0496402,10.7638159 11.0832134,10.5827615 C11.2538912,9.92251046 11.3608368,9.24743096 11.4025439,8.56676151 L14.8244351,8.56676151 C14.7369372,9.61576569 14.4070293,10.6301255 13.8607197,11.5299414 Z" id="Shape"></path>
        </g>
    </g>
</svg>
